azure-docs/datafactory.svg

<svg xmlns="http://www.w3.org/2000/svg" viewBox="0 0 50 50"><path fill="#59B4D9" d="M49.9 29.5V17.4L36.2 29.3h-.3V17.4L22.2 29.3V4.4c0-2.1-4.7-4.2-10.9-4.2S0 2.2 0 4.4V50h50l-.1-20.5zM11.3 6.4c-4.5 0-8.1-1.1-8.1-2.3s3.6-2.3 8.1-2.3 8.1 1 8.1 2.3c-.1 1.2-3.7 2.3-8.1 2.3zm23.6 35.5h-5.5v-5.5h5.5v5.5zm-9.7 0h-5.5v-5.5h5.5v5.5zm14 0v-5.5h5.5v5.5h-5.5z"/><path fill="#3999C6" d="M0 4.1h11.1V50H0z"/><path fill="#FFF" d="M22.1 4.1c0 2.2-5 4-11.1 4S0 6.3 0 4.1s5-4 11.1-4 11 1.7 11 4"/><path fill="#7FBA00" d="M19.9 3.8c0 1.5-3.9 2.6-8.8 2.6S2.3 5.3 2.3 3.8s3.9-2.6 8.8-2.6 8.8 1.2 8.8 2.6"/><path fill="#B8D432" d="M18 5.4c1.2-.4 1.8-1 1.8-1.6 0-1.5-3.9-2.6-8.8-2.6S2.2 2.4 2.2 3.8c.1.6.8 1.2 1.9 1.6 1.6-.6 4.1-1 7-1 2.8 0 5.3.4 6.9 1"/></svg>

<?xml version="1.0" encoding="utf-8"?>
<!-- Generator: Adobe Illustrator 17.1.0, SVG Export Plug-In . SVG Version: 6.00 Build 0)  -->
<!DOCTYPE svg PUBLIC "-//W3C//DTD SVG 1.1//EN" "http://www.w3.org/Graphics/SVG/1.1/DTD/svg11.dtd">
<svg version="1.1" id="Layer_1" xmlns="http://www.w3.org/2000/svg" xmlns:xlink="http://www.w3.org/1999/xlink" x="0px" y="0px"
	viewBox="0 0 50 50" enable-background="new 0 0 50 50" xml:space="preserve">
<path fill="#59B4D9" d="M49.9,29.5L49.9,29.5V17.4L36.2,29.3h-0.3V17.4L22.2,29.3l0,0V4.4c0-2.1-4.7-4.2-10.9-4.2
	C5.1,0.2,0,2.2,0,4.4V50h50L49.9,29.5z M11.3,6.4c-4.5,0-8.1-1.1-8.1-2.3s3.6-2.3,8.1-2.3s8.1,1,8.1,2.3C19.3,5.3,15.7,6.4,11.3,6.4
	z M34.9,41.9h-5.5v-5.5h5.5V41.9z M25.2,41.9h-5.5v-5.5h5.5V41.9z M39.2,41.9v-5.5h5.5v5.5H39.2z"/>
<rect x="0" y="4.1" fill="#3999C6" width="11.1" height="45.9"/>
<path fill="#FFFFFF" d="M22.1,4.1c0,2.2-5,4-11.1,4S0,6.3,0,4.1c0-2.2,5-4,11.1-4S22.1,1.8,22.1,4.1"/>
<path fill="#7FBA00" d="M19.9,3.8c0,1.5-3.9,2.6-8.8,2.6S2.3,5.3,2.3,3.8c0-1.5,3.9-2.6,8.8-2.6S19.9,2.4,19.9,3.8"/>
<path fill="#B8D432" d="M18,5.4c1.2-0.4,1.8-1,1.8-1.6c0-1.5-3.9-2.6-8.8-2.6c-4.9,0-8.8,1.2-8.8,2.6C2.3,4.4,3,5,4.1,5.4
	c1.6-0.6,4.1-1,7-1C13.9,4.4,16.4,4.8,18,5.4"/>
</svg>
